X: 27967
T: Mouse In The Kitchen
R: jig
M: 6/8
K: Amajor
|:c2B cde|dcA ~F3|E2E EFA|B2A Bcd|
c2B cde|dcA ~f3|a2e fec|1 BAG Acd:|2 BAG ~A3||
|:B3 BAB|cec cBA|B2B BAB|cea aec|
~B3 BAB|cec cBA|gae fec|1 BAG ~A3:|2 Bce fed||

